X:1
T:Con male nuove
T:Con male nuove
T:Barbara Strozzi
T:Source : Cantate, ariette a 1,2 e 3 voci---Opera terza---Venetia---F.Magni---1654. Editor : André Vierendeels (03/09/16).
T:Notes : Original clefs : C1, F4 Editorial accidentals above the staff Dotted brackets indicate black notes Original note values have been halved 
T:©
T:©
T:©
T:©
T:©
C:Barbara Strozzi
Z:©
%%score 1 2
L:1/8
Q:1/4=86
M:3/2
K:C
V:1 treble nm="Soprano" snm="S"
V:2 bass nm="MusicXML Part"
V:1
 AE^F^GAB c2 A2 z2 | c^GABcd e2 c2 z2 | z2 c2 G2 A2 fe dc | e2 d4 c2 e2 f2 | g2 d2 e2 fefgfe | %5
w: Que- * * * * * * sta,|que- * * * * * * sta,|que- sta, que- sta'e _ la _|nuo- * va, que- sta|que- sta'e la nuo- * * * * *|
w: Sen- * * * * * * ta,|sen- * * * * * * ta,|sen- ta, sen- ta _ chi _|bra- * ma, sen- ta|sen- ta, chi bra- * * * * *|
w: Deh, _ _ _ _ _ _ _|deh, _ _ _ _ _ _ _|deh can- tar non _ mi _|fa- * te, deh can-|tar non mi fa- * * * * *|
 e4 e2 Td4 c2 | B2 B2 e2 Td4 c2 | B2 A^G AB c2 B4 | A2 c4 A2 f4 | d2 c2 G2 A2 f2 e2 | %10
w: va ch'io vo da|di- re, ch'io vo da|di- re'A- * * * man- *|ti que- sta, que-|sta, que- sta, que- sta la|
w: ma la can- zo-|net- ta, la can- zo-|net- ta, _ u- * di- *|re sen- ta, sen-|ta, sen- ta, sen- ta chi|
w: te, che la can-|* zon, che la can-|zon peg- * * * gio- *|ra, _ no, _|no, deh can- tar non mi|
 e2 d4 c2 c2 G2 | A2 f2 e2 e2 d4 | c4 e2 e2 d2 d2 | d2 c2 B2 B4 B2 | e6- e2 ^f2 g2 | %15
w: nuo- * va, que- sta|que- sta la nuo- *|va ch'a- man- * do|non _ si tro- va|al- * tro che|
w: bra- * ma, sen- ta,|sen- ta chi bra- *|ma non s'a- ma, non|s'a- ma, non s'a- ma|sen- * * za|
w: fa- * te, deh, deh,|deh, non mi fa- *|te quan- te _ be-|van _ de'in- gra- te|fug- * ge chi|
 ^d2 e2 ^f2 g2 f4 | e2 BA Bc d2 A^G AB | cBcdcB B4 e2 | d4 c2 B2 B2 e2 | d4 c2 B2 A^GAB | %20
w: pe- ne e pia- *|ti, que- * sta, _ que- sta'e- * la _|nuo- * * * * * va ch'io|vo da di- re, ch'io|vo da di- re'A- * * *|
w: pe- na'e mar- ti- *|re, sen- * ta _ sen- ta _ chi _|bra- * * * * * ma la|can- zo- net- ta, la|can- zo- net- ta'u- * * *|
w: s'in- na- * mo- *|ra, deh _ can- * tar non _ mi _|fa- * * * * * te che|la can- * zon, che|la can- zon peg- * * *|
 c2 B4 A6 :: z2 AB cd e2 e2 e2 | B3 c Bc d3 ede | A3 B AB c2 B3 A | ^G2 E4 z2 E2 ^F2 | %25
w: man- * ti.|Ben _ _ _ _ il mio|cor _ _ _ _ _ _ _|_ _ _ _ _ _ il|pro- va e vo-|
w: di- * re.|A _ _ _ _ chi m'in-|vi- * * * * * * *|* * * * * * ta'è|chia- ma al- tro|
w: gio- * ra.|Ha _ _ _ _ po- ca|ca- * * * * * * *|* * * * * * ri-|ta- te, chi vuol|
 G2 ^F2 E2 A2 ^G2 A2 | B2 A2 B2 c2 B2 c2 | d2 c2 d2 e6- | e6 e6- | e6- e2 B2 c2 | d2 A2 B2 c4 B2 | %31
w: le- te ch'io can- * *|||* ti,|_ _ que- sta,|que- sta'e la nuo- *|
w: non ho che di- * *|||* re,|_ _ sen- ta,|sen- ta chi bra- *|
w: ch'io can- ti an- co- *|||* ra,|_ _ deh can-|tar non mi fa- *|
 B4 e2 e2 d2 d2 | d2 c2 B2 B4 B2 | e6- e2 ^f2 g2 | ^d2 e2 ^f2 g2 f4 | e2 BA Bc d2 A^G AB | %36
w: va ch'- man- * do|non _ si tro- va|al- * tro che|pe- ne e pian- *|ti, que- * sta _ que- sta'e _ la _|
w: ma non s'a- ma no,|no _ non s'a- ma,|sen- * * za|pe- a'e mar- ti- *|re, sen- * ta, _ sen- ta _ chi _|
w: te, quan- te _ be-|van _ de'in- gra- te|fug- * ge chi|s'in- na- * mo- *|ra, deh _ can _ tar non _ mi _|
 cBcdcB B4 e2 | d4 c2 B2 B2 e2 | d4 c2 B2 A^GAB | c2 B4 A6 :| %40
w: nuo- * * * * * va ch'io|vo da di- re, ch'io|vo da di- re'a- * * *|man- * ti.|
w: bra- * * * * * ma la|can- zo- net- ta, la|can- zo- net- ta'u- * * *|di- * re.|
w: fa _ _ _ _ _ te che|la can- * zon, che|la can- zon peg- * * *|gio- * ra.|
V:2
"^BC" A,,6 A,,6 | A,,6 A,,4 B,,2 | C,4 E,2 F,6 | G,6 C,2 C4 |"^BC" B,6 A,2 A,,2 B,,2 | C,6 D,6 | %6
 E,4 C,2 D,6 | E,2 F,4 D,2 E,4 |"^BC" A,,2 E,4 F,6 | G,2 E,4 F,6 | G,6 C,2 E,4 | F,6 G,6 | %12
"^BC" C,6 B,,6 | A,,6 E,6 | E,4 D,2 C,4 A,,2 | B,,4 A,,4 B,,4 |"^BC" E,6 ^F,4 ^G,2 | %17
 A,2 E,2 ^F,2 ^G,4 A,2 | D,6 E,4 C,2 | D,6 E,2 F,4 |"^BC" D,2 E,4 A,,6 :: A,,6 ^G,6 | G,6 ^F,6 | %23
 F,6 D,6 |"^BC" E,4 D,2 C,6 | B,,6 A,,6 |"^(-natural)" ^G,6 A,4 G,2 | F,6 E,2 E,2 ^F,2 | %28
"^BC" ^G,2 ^F,2 G,2 A,2 A,,2 B,,2 | C,2 B,,2 A,,2 E,6 | ^F,4 ^G,2 A,2 E,2 F,2 | ^G,4 A,2 C2 B,4 | %32
"^BC" A,6 E,6 | E,4 D,2 C,4 A,,2 | B,,4 A,,4 B,,4 | E,6 ^F,4 ^G,2 |"^BC" A,2 E,2 ^F,2 ^G,4 A,2 | %37
 D,6 E,4 C,2 | D,6 E,2 F,4 | D,2 E,4 A,,6 :| %40

